!!!!SEGMENT: pl-sa--555-a-ix-35--004_anonim--marsz.krn
!!!cenid: 18xx:584
!!!COM: Anonim
!!!COM-rismid: pe30004985
!!!CDT:
!!!CNT:
!!!OTL: Marsz
!!!PDT:
!!!AGN: Secular; March
!!!SMS-siglum: PL-SA
!!!SMS-shelfmark: 555/A IX 35
!!!SMS-shelfwork: 004 W
!!!SMS-variant:
!!!SMS-altvar:
!!!NIFC-rismid: 1001065395
!!!URL-scan: http://bc.bdsandomierz.pl/dlibra/publication/1311/edition/1279/content
!!!ONB-nifc: Str. 6
**kern	**kern
*part1	*part1
*staff2	*staff1
*I"Piano	*
*I'P-no	*
*clefF4	*clefG2
*k[b-]	*k[b-]
*F:	*F:
*M2/4	*M2/4
*A,A,B,C,A	*
*A	*A
!	!LO:TX:a:t=Marsz
8r	16a\LL 16f\
.	16b-\JJ 16g\
=1	=1
!LO:SIC:o:s:=:v: all 16/8/4/2/ left	!
8F/L 8FF/	8cc\L 8a\
8F/ 8FF/	8cc\ 8a\
8F/J 8FF/	8cc\J 8at\
8r	16b-\LL 16g\
.	16cc\JJ 16a\
=2	=2
8BB-/L 8BBB-/	8dd\L 8b-\
8BB-/ 8BBB-/	8dd\ 8b-\
8BB-/J 8BBB-/	8dd\J 8b-T\
8r	16cc\LL 16a\
.	16dd\JJ 16b-\
=3	=3
8C/L 8CC/	8ee\L 8b-\ 8g\
8C/ 8CC/	8ee\J 8b-\ 8g\
8C/J 8CC/	16ee\LL
.	16ff\
8r	16gg\
.	16ee\JJ
=4	=4
8A\L 8F\	16ff\LL
.	16aa\
8c\	16gg\
.	16ff\JJ
8A\J 8F\	16ee\LL
.	16dd\
8r	16cc\
.	16b-\JJ
=5	=5
8F/L 8FF/	8cc\L 8a\
8F/ 8FF/	8cc\ 8a\
8F/J 8FF/	8cc\J 8a\
8r	16b-\LL 16g\
.	16cc\JJ 16a\
=6	=6
8BB-/L 8BBB-/	8dd\L 8b-\
8BB-/ 8BBB-/	8dd\ 8b-\
8BB-/J 8BBB-/	8dd\J 8b-\
8r	16cc\LL 16a\
.	16dd\JJ 16b-\
=7	=7
8B-\L 8G\ 8C\	8ee\L 8b-\ 8g\
8B-\ 8G\ 8C\	8ee\J 8b-\ 8g\
8B-\J 8G\ 8C\	16ee\LL
.	16ff\
8r	16gg\
.	16ee\JJ
=8	=8
!!linebreak:original
8A\L 8F\	8ff\L
8c\ 8A\	8aa\ 8cc\
8A\J 8F\	8ff\J 8a\
8r	8r
=9:|	=9:|
4A\ 4AA\	4aa\ 4a\
4F\ 4FF\	4ff\ 4f\
=10	=10
16CC/LL	4cc/ 4A/
16EE/	.
16GG/	.
16C/JJ	.
!	!LO:N:vis=8
4CC/	8cc\L
.	8bn\J
=11	=11
4CC/	16cc\LL
.	16dd\
.	16ee\
.	16ff\JJ
4C\	16gg\LL
.	16aa\
.	16bb-X\
.	16ccc\JJ
=12	=12
8C/L 8CC/	8bb-\L
8C/ 8CC/	8bb-\ 8gg\
8C/J 8CC/	8bb-\J 8gg\
8r	8r
=13	=13
4G\ 4GG\	4gg\ 4g\
4E/ 4EE/	4ee\ 4e\
=14	=14
!	!LO:SIC:o:s:=:v: all 16/8/4/2/ left
!	!LO:N:vis=4.
16CC/LL	4cc/ 4c/
16EE/	.
16GG/	.
16C/JJ	.
8CC/	8cc\L
8r	8bn\J
=15	=15
!!linebreak:original
4CC/	16cc\LL
.	16dd\
.	16ee\
.	16ff\JJ
4C\	16gg\LL
.	16bb-\
.	16aa\
.	16ccc\JJ
=16	=16
8F\L 8FF\	8aa\L 8ff\ 8cc\
8F\ 8FF\	8aa\ 8ff\ 8cc\
8F\J 8FF\	8aa\J 8ff\ 8cc\
8r	8r
=17	=17
8A\L 8F\	8ff\L
8c\J	8ff\J
*rep	*
8A\L 8F\	16gg\LL
.	16ff\
8c\J	16ee\
.	16ff\JJ
*Xrep	*
=18	=18
!LO:TX:a:t=P:problem:mixed beam	!
8C/L	16ff#X\LL
.	16gg\
8c\J	16aa\
.	16gg\JJ
!LO:TX:a:t=P:problem:mixed beam	!
8C/L	16ffn\LL
.	16ee\
8c\J	16dd\
.	16cc\JJ
=19	=19
8A\L 8F\	8ff\L
8c\J	8ff\J
*rep	*
8A\L 8F\	16gg\LL
.	16ff\
8c\J	16ee\
.	16ff\JJ
*Xrep	*
=20	=20
16Bn\LL	16bbn\LL
16c\	16ccc\
16d\	16ddd\
16c\JJ	16ccc\JJ
16B-X\LL	16bb-X\LL
16A\	16aa\
16B-\	16bb-\
16G\JJ	16gg\JJ
!!LO:LB:g=original
=21	=21
8A\L 8F\	8ff\L
8c\J	8ff\J
*rep	*
8A\L 8F\	16gg\LL
.	16ff\
8c\J	16ee\
.	16ff\JJ
*Xrep	*
=22	=22
!LO:TX:a:t=P:problem:mixed beam	!
8C/L	16ff#X\LL
.	16gg\
8c\J	16aa\
.	16gg\JJ
!LO:TX:a:t=P:problem:mixed beam	!
8C/L	16ffn\LL
.	16ee\
8c\J	16dd\
.	16cc\JJ
=23	=23
8A\L 8F\	8ff\L
8c\J	8ff\J
*rep	*
8A\L 8F\	16gg\LL
.	16ff\
8c\J	16gg\
.	16aa\JJ
*Xrep	*
=24	=24
8d\L 8F\	8ff\L 8a\
8f\ 8A\	8aa\ 8cc\
8d\J 8F\	8ff\J 8a\
8r	8r
*C	*C
=25||	=25||
*clefG2	*
*k[b-e-]	*k[b-e-]
!	!LO:TX:rj:a:t=Trio
8d/L 8B-/	4.dd\ 4.b-\
8f/J	.
*rep	*
8d/L 8B-/	.
8f/J	8ee-\ 8cc\
*Xrep	*
=26	=26
*rep	*
8d/L 8B-/	(16gg\LL 16ee-\
.	16ff\JJ 16dd\)
8f/J	4ff\ 4dd\
*Xrep	*
*rep	*
8d/L 8B-/	.
8f/J	8bb-\ 8dd\
*Xrep	*
=27	=27
8e-/L 8c/	16aa\LL
.	16bb-\
8f/J	16ccc\
.	16bb-\JJ
*rep	*
8e-/L 8c/	16aa\LL
.	16gg\
8f/J	16ff\
.	16ee-\JJ
*Xrep	*
=28	=28
8d/L 8B-/	16dd\LL
.	16ddd\
8f/J	16ccc\
.	16bb-\JJ
*rep	*
8d/L 8B-/	16aa\LL
.	16gg\
8f/J	16ff\
.	16ee-\JJ
*Xrep	*
=29	=29
*rep	*
8d/L 8B-/	4.dd\ 4.b-\
8f/J	.
*Xrep	*
*rep	*
8d/L 8B-/	.
8f/J	8ee-\ 8cc\
*Xrep	*
=30	=30
*rep	*
8d/L 8B-/	(16gg\LL 16ee-\
.	16ff\JJ 16dd\)
8f/J	4ff\ 4dd\
*Xrep	*
*rep	*
8d/L 8B-/	.
8f/J	8bb-\ 8dd\
*Xrep	*
!!LO:LB:g=original
=31	=31
8e-/L 8c/	16aa\LL
.	16bb-\
8f/J	16ccc\
!	!LO:TX:a:t=b
.	16bb-\JJ
*rep	*
8e-/L 8c/	16aa\LL
.	16ff\
8f/J	16gg\
.	16aa\JJ
*Xrep	*
=32	=32
!LO:SIC:o:s:=:v:8/right	!
8d/L 8B-/	8bb-\L 8dd\
8f/ 8d/	8ddd\ 8ff\
8d/J 8B-/	8bb-\J 8dd\
8r	8r
=33||	=33||
*LO:CL:ed	*
*clefF4	*
8r	16aa\LL
.	16bb-\JJ
=34	=34
!	!LO:SIC:o:s:=:v:brak klucza basowego
8F/L 8FF/	8ccc\L 8aa\
8F/ 8FF/	8ccc\ 8aa\
8F/J 8FF/	8ccc\J 8aa\
8r	16aa\LL
.	16ccc\JJ
=35	=35
8F/L 8FF/	8ff\L 8cc\ 8a\
8F/ 8FF/	8ff\ 8cc\ 8a\
8F/J 8FF/	8ff\J 8cc\ 8a\
8r	16bb-\LL
.	16ccc\JJ
=36	=36
!LO:SIC:o:s:=:v:8/right	!
8BB-/L 8BBB-/	8ddd\L 8bb-\
8BB-/ 8BBB-/	8ddd\ 8bb-\
8BB-/J 8BBB-/	8ddd\J 8bb-\
8r	16bb-\LL
.	16bb-\JJ 16gg\
=37	=37
8F/L 8FF/	8ff\L 8cc\ 8a\
8F/ 8FF/	8ff\ 8cc\ 8a\
8F/J 8FF/	8ff\J 8cc\ 8a\
!	!LO:N:vis=16
8r	32r;
!	!LO:N:vis=8
.	32ff\LLL
!	!LO:N:vis=8
.	32een\
!	!LO:N:vis=8
.	32ee-X\JJJ
!LO:TX:a:t=Da Capo	!
==	==
*-	*-
!!!system-decoration: s1,s2
!!!EED: Leszek Kubiak
!!!EST: 2020-12-10
!!!ENC: Marcin Jachim
!!!END: 2020-06-19
